X:2358
L:1/8
Q:1/2=80
M:2/2
K:D
 A | dAeA fA g2 | fg/f/ ed ce A2 | FDAD BD A2 | FDAD BD d2 | AG/F/ EA F D2 :: F | BFBc dcde | 
 fe/d/ cB ^A2 F2 | BFcF dF c2 | BFcF dF e2 | fe/d/ c>B B3 c | dAGF E A2 G- | GF/G/ ED c E2 A/G/ | 
 FAdF GB e/f/e/d/ | c/B/A/G/F EF D2 :|

